X:1
T:Libera Me, Domine
T:Libera Me, Domine
T:Deliver Me, O Lord
T:Gabriel Faure
C:Gabriel Faure
%%score { ( 1 4 ) | ( 2 3 ) }
L:1/8
Q:1/2=60
M:2/2
K:F
V:1 treble nm="Piano" snm="Pno."
V:4 treble 
V:2 bass 
V:3 bass 
V:1
"^Moderato"!p!!ped! D8-!ped! | D8 | D4- D3 A!ped-up! |!ped! ^C8!ped!!ped-up! | %4
w: ||Li- * be-|ra|
!ped! D8-!ped!!ped-up! |!ped! [A,CD-]8!ped!!ped-up! | [B,D]8!ped-up! | %7
w: |||
!ped! D4!ped!!ped-up!!ped! ^C4!ped-up!!ped!!ped-up! |!ped! x8!ped!!ped-up! | z4!ped-up! [CD]4 | %10
w: ||In|
!ped! [G,B,]8!ped!!ped-up! | d4 c2 x2!ped-up! |!ped! (A8!ped!!ped-up! | A,8)!ped-up! | %14
w: |il- la|||
!<(!!ped! E8!ped!!ped-up!!<)! |!mf!!mf! F8 | [^CE]8!ped-up! |!p!!ped! [=C_E]8!ped!!ped-up! | %18
w: ||||
 D4 [A,C]2 [B,D]2!ped-up! |!ped! [B,DF]8!ped!!ped-up! | E4 C2 D2!ped-up! | %21
w: |||
!ped! [=C_EG]8!ped!!ped-up! |!<(! ^F4 D2 _E2!ped-up! |!ped! [D=FA]8!ped!!ped-up!!<)!!ped-up! | %24
w: |||
!f!!f!!ped! [DE^G]8!ped!!ped-up! |!ped! [^CE=G]8!ped!!ped-up! |!ped! [CD^F]8!ped!!ped-up! | %27
w: |||
!ped! [F,-=B,]8!ped!!ped-up! |!ped! [F,-A,C]8!ped!!ped-up! | [F,A,D]8!ped-up! | %30
w: |||
[Q:1/4=116]"^poco rall."!ped! [DF]8!ped!!ped-up![Q:1/2=56] | %31
w: |
[Q:1/2=54] [=G,_B,]4[Q:1/2=52] [G,A,^C]4!ped-up! | %32
w: |
[Q:1/4=120]"^A Tempo"!ped! [F,A,]8-!ped!!ped-up! |!>(! [F,A,]8- | %34
w: ||
 [F,A,]4!>)! z2!pp! [A,^C]2!ped-up! |!ped! [B,D]2!ped! [^CE]2!ped-up! [DF]2 [EG]2!ped-up! || %36
w: ||
!ped! F4!ped! F4!ped-up! | G4 A4-!ped-up! | A2!ped! A2!ped! G2 F2!ped-up! | E8!ped-up! | %40
w: ||||
!ped! F8!ped!!ped-up! | F8!ped-up! |!ped! (F4!ped! E4)!ped-up! | %43
w: |||
"_cresc."!ped! (_E4!ped! D4)!ped-up! |!<(! C4 D4!<)! |!f!!f!!ped! =E4!ped! F3 F!ped-up! | %46
w: |||
 G4 G2 G2 |!ped! A4!ped! (G2 F2)!ped-up! |!ped! E4!ped! D4!ped-up! |!>(! ^C4 D4!ped-up!!>)! | %50
w: ||||
!p!!p!!ped! D8!ped!!ped-up! |!ped! ^C4!ped! x4!ped-up! || %52
w: ||
[M:6/4][Q:3/4=72]"^Più mosso" [Aa]4 [Aa]2- [Aa]2 [Aa]2 [Aa]2 |!f! [fa]6- [fa]4 [fa]2 | %54
w: |Di- * es|
 [fa]6 [fa]6 | [fc']6- [fc']4 [gc']2 | [ac']6 [ac']6 | [af']6 [af']4 [af']2 | %58
w: il- la,|di- * es|i- ræ|ca- la- mi-|
!ped! [g_e']6!ped! [^fd']6!ped-up! |!ped! [gd']4!ped! [gb]2 g4 [ga]2!ped-up! | %60
w: ta- tis|et mi- se- ri-|
!ped! [gb]6-!ped! [gb]4 z2!ped-up! |!ped! [_eg]6-!ped! [eg]4 [eg]2!ped-up! | [_eg]6 [eg]6!ped-up! | %63
w: æ, _|di- * es|il- la,|
!ped! [gb]6-!ped! [gb]4 [gb]2!ped-up! | [gb]6 [gb]6!ped-up! | [g_e']6-!ped! [ge']4 [ge']2!ped-up! | %66
w: di- * es|ma- gna|et _ a-|
 [f_d']6 [=ec']4 [ec']2 |!ped! [fc']4!ped! [f_a]2 f4 g2!ped-up! |!>(! [f_a]12!ped-up!!>)! | %69
w: ma- ra, a-|ma- ra val- *|de.|
!p! c12 | =B12 | d12 | ^c12 |"_cresc." =e12 |!<(! ^d12 | ^f12!<)! |!f!!>(! ^e12!>)! | %77
w: ||||||||
!p!!p!!p! x12 | ^e12 | ^c12 | x12 | g12 | f12 || %83
w: ||||||
[M:2/2][Q:1/2=60]"^Moderato"!ped! A4!ped! z2 A2 | x4!ped-up!!pp! [A,^C]2 [A,C]2 z2 [A,C]2!ped-up! | %85
w: ||
!<(!!ped! [A,D]2!ped! [A,D]2 z2 [A,D]2!ped-up!!<)! |!mf!!>(! [DF]2 [DF]2 z2 [DF]2!ped-up!!>)! | %87
w: ||
!pp!!ped! [A,^CE]2!ped! [A,CE]2 z2 G,2!ped-up! |!<(! [A,^C]2 [A,C]2 z2 [A,C]2!ped-up!!<)! | %89
w: ||
!f!!>(!!ped! [A,^C]2!ped! [A,CA]2 z2 [A,CA]2!ped-up!!>)!!ped-up! | %90
w: |
!pp!!ped!!<(! [G,A,^CG]2!ped! [G,A,CG]2 z2 [G,A,CG]2!ped-up!!<)!!ped-up! || %91
w: |
!p!!ped! x8!ped!!ped-up! |!ped! x8!ped!!ped-up! |!ped! x8!ped!!ped-up! | x8!ped-up!!ped! | %95
w: ||||
 z2 [A,_B,D]2 A,2 [B,D]2 | [F,A,D]2 [F,A,D]2 z2 [G,A,^C]2!ped-up! | %97
w: ||
!ped! A,2!ped! A,2 z2 [A,D]2!ped-up! | C2 [CD]2 z2 C2!ped-up! | %99
w: ||
!<(!!ped! z2!ped! [G,B,]2 z2 x2!ped-up!!<)! |!mp!!>(! x8!ped-up! | %101
w: ||
!ped! x8!ped!!ped-up!!>)!!ped-up! |!p!!ped! [A,D]2!ped! [A,D]2 z2 [A,D]2!ped-up! | %103
w: ||
!<(!!ped! [A,E]2!ped! [A,E]2 z2 [A,E]2!ped-up!!<)!!ped-up! | %104
w: |
!mf!!>(!!ped! [=B,F]2!ped! [B,F]2 z2 [B,F]2!ped-up!!>)!!ped-up! | %105
w: |
!p!!p!!ped! [^CE]2!ped! [CE]2 z2 [CE]2!ped-up! | A,8!ped-up! | %107
w: ||
!ped!!>(! [CD]2!ped! [CD]2 [G,B,]2 [CD]2!ped-up!!>)!!ped-up! | %108
w: |
!pp!!ped!"_cresc." [B,DF]2!ped! [DF]2 z2 x2!ped-up! | %109
w: |
 x2 z2!ped-up!!ped! [A,C]2!ped-up!!ped! [DE]2 | [C_EG]2 [EG]2 z2 x2 | %111
w: ||
!mp!!<(! x2 z2!ped-up!!ped! [B,D]2!ped-up!!ped! [_E^F]2 | [D=FA]2 [FA]2 z2 x2!<)! | %113
w: ||
!f!!f! x8!ped-up!!ped!!ped-up!!ped! | [^CE=G]2 [EG]2 z2 [EG]2!ped-up! | %115
w: ||
!ped! [CD^F]2!ped! [DF]2 z4!ped-up! | =B,8!ped-up! |!ped! [A,C]2!ped! [CF]2 z2 [CF]2!ped-up! | %118
w: |||
 x8!ped-up! |!ped! [DF]2!ped! [DF]2 z2 [DF]2!ped-up! |!ped! [_B,D]2!ped! [B,D]2 z2 [^CE]2!ped-up! | %121
w: |||
!>(!!ped! [F,A,]2!ped! [F,A,]2 z2 [F,A,]2!ped-up! | [F,A,]2 [F,A,D]2 z2 [F,A,D]2!>)!!ped-up! | %123
w: ||
!p![Q:1/4=116]"^morendo fino al fine"!ped!!8vb(! [A,CD]2!ped! [A,CD]2 z2 [A,CD]2!ped-up! | %124
w: |
!ped! [A,B,D]2!ped! [A,B,D]2 z2 [G,B,D]2!ped-up! | %125
w: |
[Q:1/2=56]!ped! [F,A,D]2!ped! [F,A,D]2 z2 [D,F,D]2!ped-up! | %126
w: |
 [E,G,D]2 [F,A,D]2 z2 [G,B,D]2!ped-up! |[Q:1/2=54]!ped! [A,CD]2!ped! [A,CD]2 z2 [A,CD]2!ped-up! | %128
w: ||
!ped! [A,B,D]2!ped! [A,B,D]2 z2 [G,B,D]2!ped-up! | %129
w: |
[Q:1/2=52]!>(!!ped! [F,A,D]2!ped! [F,A,D]2 z2 [D,F,D]2!ped-up! | %130
w: |
 [E,G,D]2!>)!!pp! [F,A,D]2 z2 [G,B,D]2!ped-up! |[Q:1/2=50]!ped! [A,CD]2!ped! [A,CD]2 z4!ped-up! | %132
w: ||
[Q:1/2=45]!ped! [G,A,^CE]2!ped! [G,A,CE]2[Q:1/2=40] z4!ped-up! | %133
w: |
[Q:1/2=45]!ped! [F,A,D]2!ped! [F,A,D]2 z4!ped-up! | [F,A,D]2 [F,A,D]2 z4 | %135
w: ||
 !fermata!D8!8vb)!!ped-up! |] %136
w: |
V:2
!p!!p!!p! [F,A,]8- | [F,A,]8- | [F,A,]2 z2 z4 | [G,,A,,]8 | F,8 | ^F,,2 F,,2 z2 F,,2 | %6
 G,,2 G,,2 z2 G,,2 | [F,A,]4 [G,A,]4 | [F,-A,]8 | [F,B,]4 ^F,4 | x8 | [B,DE]8 | [C,F,-]8 | %13
 [D,F,]8 |!<(! E,8!<)! |!mf!!mf!!mf! [A,=B,]4!>(! G,4 | A,8-!>)! |!p!!p! A,8- | A,8 | x8 | %20
 z4 A,2 B,2 | x8 |!<(! z4 B,2 C2 | x8!<)! |!f!!f! x8 | x8 | x8 | x8 | x8 | x8 | [^G,,=B,,]8 | x8 | %32
 D,8- |!>(! D,8- | D,4!>)! z4 | z8 || D8 | D8 | B,8 | A,4 G,4 | D,8 | D,8 | C,8- | %43
"^cresc." C,4 ^F,4 |!<(! G,4 A,4!<)! |!f! B,4 C4 | ^C4 D2 E2 | F4 (E2 D2) | C4 (B,2 A,2) | %49
!>(! G,4 A,4!>)! |!p!!p! A,4 ^G,4 | A,8 ||[M:6/4] z12 |!p! [F,A,]12- | [F,A,]12 | [A,C]12- | %56
 [A,C]12 | [F,A,C-]12 | [G,C_E]6 [CD^F]6 | [B,D]6 [C_E]6 | [B,D]12 | G,12- | G,12 | [G,B,]12- | %64
 [G,B,]12 | [B,_E]12 | [B,_D]6 [C=E]6 | [CF]6 [_DF]6 |!>(! [_A,C]12!>)! | %69
!p! G,2 F,2 F,2 _A,,2 A,,2 F,2 | z2 F,2 F,2 =B,,2 F,2 G,2 | z2 B,2 G,2 B,,2 D,2 G,2 | %72
 z2 A,2 A,2 E,2 G,2 A,2 |"_cresc." z2 =C2 C2 =E,2 A,2 C2 |!<(! z2 =B,2 B,2 ^D,2 A,2 B,2 | %75
 =B,2 ^F2 F2 B,2 D2 B,2!<)! |!>(! z2 ^C2 C2 z2 =B,2 ^E,2!>)! | ^A,2 A,2 ^C2 ^F2 C2 A,2 | %78
 z2 ^G,2 =B,2 ^G2 ^E2 B,2 | ^C,2 ^A,,2 ^F,,2 C,2 ^A,2 ^F,2 | z2 A,,2 A,,2 D,2 A,,2 A,,2 | %81
 z2 A,,2 A,,2 ^C,2 A,,2 A,,2 | z2 A,,2 A,,2 =B,,2 ^G,,2 G,,2 ||[M:2/2] [^C,A,]8 | %84
 [G,,E,]2 [G,,E,]2 z2 [G,,E,]2 | [F,,D,]2 [F,,D,]2 z2 [F,,D,]2 | [^G,,D,]2 [G,,D,]2 z2 [G,,D,]2 | %87
 [E,,^C,]2 [E,,C,]2 z2 [E,,C,]2 | z2 [G,,E,]2 z2 [G,,E,]2 | z2 F,,2 z2 F,,2 | %90
!<(! z2 E,,2 z2 [E,,A,,^C,]2!<)! || [D,,A,,D,]2 [D,,A,,D,]2 z2 [D,,A,,D,]2 | %92
 [E,,A,,^C,]2 [E,,A,,C,]2 z2 [E,,A,,C,]2 | [F,,B,,F,]2 [F,,B,,F,]2 z2 [F,,A,,F,]2 | %94
 [^F,,D,^F,]2 [F,,D,F,]2 z2 [F,,D,F,]2 | [G,,D,]2 [G,,D,]2 z2 [G,,D,]2 | %96
 [A,,D,]2 [A,,D,]2 z2 [A,,E,]2 | [B,,F,]2 [B,,F,]2 z2 [B,,F,G,]2 | [A,,F,]2 [A,,F,]2 z2 [A,,^F,]2 | %99
 [G,,D,]2 [G,,D,]2 z2 [G,,D,]2 | [G,,D,E,]2 [G,,D,E,]2 z2 [G,,B,,E,]2 | %101
 [A,,C,F,]2 [A,,C,F,]2 z2 [A,,C,]2 | [=B,,F,]2 [B,,F,]2 z2 [B,,F,]2 | %103
!<(!!<(! [C,E,]2 [C,E,]2 z2 [C,E,]2!<)!!<)! |!>(! [D,A,]2 [D,A,]2 z2 [D,G,]2!>)! | %105
 [A,,E,A,]2 [A,,E,A,]2 z2 [A,,E,A,]2 | [F,,C,_E,]2 [F,,C,E,]2 z2 [F,,C,E,]2 | %107
 B,,2 B,,2 z2 [B,,A,]2 |"_cresc." G,,2 [G,,D,]2 z2 [G,,D,F,]2 | [C,E,C]2 [C,E,C]2 z2 [C,E,B,]2 | %110
 A,,2 [A,,_E,]2 z2 [A,,E,G,]2 |!<(! [D,^F,D]2 [D,F,D]2 z2 [D,F,C]2 | %112
 =B,,2 [B,,F,]2 z2 [B,,F,A,]2!<)! | [E,^G,E]2 [E,G,E]2 z2 [E,G,D]2 | %114
 [A,,E,=G,]2 [A,,E,G,]2 z2 A,,2 | [D,,C,]2 [D,,C,]2 z2 [D,,A,,]2 | %116
 [G,,D,=F,]2 [G,,F,]2 z2 [G,,F,]2 | [A,,C,F,]2 [A,,F,]2 z2 [A,,F,]2 | %118
 [=B,,F,A,]2 [B,,A,]2 z2 B,,2 | [E,,=B,,D,]2 [E,,D,]2 z2 [E,,D,]2 | %120
 [A,,D,G,]2 [A,,D,G,]2 z2 [A,,^C,G,A,]2 |!>(! [D,,D,]2 [D,,D,]2 z2 [D,,C,]2 | %122
 [D,,B,,]2 [D,,A,,]2 z2 [D,,G,,]2!>)! | x8 | x8 | x8 | x8 | x8 | x8 | x8 | x8 | x8 | x8 | x8 | x8 | %135
 !fermata!x8 |] %136
V:3
 D,,2 D,,2 z2 D,,2 | D,,2 D,,2 z2 D,,2 | D,,2 D,,2 z2 D,,2 | E,,2 E,,2 z2 E,,2 | %4
w: ||||
 F,,2 F,,2 z2 F,,2 | x8 | x8 | A,,2 A,,2 z2 A,,2 | D,2 D,2 z2 D,2 | D,2 D,2 z2 D,2 | %10
w: ||||||
 G,,2 G,,2 z2 G,,2 | G,2 G,2 z2 G,2 | A,,2 A,,2 z2 A,,2 | =B,,2 B,,2 z2 B,,2 | C,2 C,2 z2 C,2 | %15
w: |||||
 D,2!mf! D,2 z2 D,2 | A,,2 A,,2 z2 A,,2 | F,,2 F,,2 z2 F,,2 | B,,2 B,,2 z2 B,,2 | %19
w: ||||
 G,,2 G,,2 z2 G,,2 | C,2 C,2 z2 C,2 | A,,2 A,,2 z2 A,,2 | D,2 D,2 z2 D,2 | =B,,2 B,,2 z2 B,,2 | %24
w: |||||
 E,2 E,2 z2 E,2 | A,,2 A,,2 z2 A,,2 | D,,2 D,,2 z2 D,,2 | G,,2 G,,2 z2 G,,2 | A,,2 A,,2 z2 A,,2 | %29
w: |||||
 =B,,2 B,,2 z2 B,,2 | E,,2 E,,2 z2 E,,2 | A,,2 A,,2 z2 A,,2 | D,,2 D,,2 z2 D,,2 | %33
w: ||||
 D,,2 D,,2 z2 D,,2 | D,,2 D,,2 z4 | x8 || x8 | E4 [CF-]4 | F2 F2 E2 D2 | C4 ^C4 | D4 =C4 | %41
w: ||||||||
 B,4 A,4 | G,8- | G,4 D,4 | E,4 ^F,4 | G,4 A,4 | B,8 | A,6 A,2 | G,4 F,4 | E,4 D,4 | E,8 | A,,8 || %52
w: |||||||||||
[M:6/4] x12 | A,,4 A,,2 B,,4 C,2 | _D,6 C,6 | C,4 A,,2 B,,2 C,2 =D,2 | E,6 F,6 | %57
w: |||||
 C,4 C,2 D,2 E,2 F,2 | G,4 B,2- B,4 A,2 | G,12- | G,4 D,2 B,,4 G,,2 | G,,4 G,,2 _A,,4 B,,2 | %62
w: |||||
 _C,6 B,,6 | B,,4 G,,2 _A,,2 B,,2 =C,2 | D,6 _E,6 | _E,4 B,,2 C,2 D,2 E,2 | F,4 A,2- A,4 G,2 | %67
w: |||||
 [F,_A,]6 [F,B,]6 | F,4 F,,2 _A,,4 C,2 | _D,6 =D,6- | D,6 G,,6 | _E,6 =E,6- | E,4 A,,2 ^C,4 E,2 | %73
w: ||||||
 ^E,6 ^F,6- | F,6 =B,,6 | G,6 ^G,6- | G,6 ^C,6 | ^F,12- | F,12 | ^F,,6 ^F,6 | =F,,12 | E,,12 | %82
w: |||||||||
 D,,12 ||[M:2/2] A,,8 | A,,8 | A,,8 | =B,,8 | A,,8 | [A,,^C,]8 | [A,,^C,]8 | [A,,^C,]8 || x8 | x8 | %93
w: |||||||||||
 x8 | x8 | x8 | x8 | x8 | x8 | x8 | x8 | x4 F,4 | x8 | x8 | x8 | x8 | x8 | F,,8 | x8 | x8 | x8 | %111
w: ||||||||||||||||||
 x8 | x8 | x8 | x8 | x8 | x8 | x8 | x8 | x8 | x8 | x8 | x8 | D,,4- D,,3 A,, | A,,4 G,,4 | %125
w: ||||||||||||Li- * be-|ra me,|
 F,,3 D,, D,,4- | D,,4 D,,4 | D,,4 A,,4 | A,,6 G,,2 | F,,4 D,,4- | %130
w: Do- mi- ne,|_ de|mor- *|te æ-|ter- na,|
 D,,2 [D,,D,]2 [D,,D,]2 [D,,D,]2 | [D,,D,]8 | [D,,D,]6 [D,,D,]2 | [D,,D,]8- | [D,,D,]8- | %135
w: _ li- be- ra|me,|Do- mi-|ne.|_|
 !fermata![D,,D,]8 |] %136
w: |
V:4
 x8 | x8 | x8 | A4 G4 | B3 B A4- | A4 A4 | A4 D3 E | (F4 E4) | D8 | x8 | D6 D2 | x6 B2 | c4 F4- | %13
w: |||* me,|Do- mi- ne,|_ de|mor- te æ-|ter- *|na.||di- e|tre-|men- da,|
 F2 F2 G2 A2 | A8- | (A4!>(! G4) | A8!>)! | z4 A3 A | A4 G2 A2 | B6 B2 | B4 A2 B2 | c6 c2 | %22
w: _ in di- e|il-||la,|quan- do|cœ- li mo-|ven- di|sunt, quan- do|cœ- li|
 c4 B2 c2 | d6 d2 | d4 E4 | z4 A4 | d4- d3 D | D4 D2 E2 | F8- | F2 F2 E2 D2 | =B6 d2 | E8 | D8- | %33
w: mo- ven- di|sunt et|ter- ra,|dum|ve- * ne-|ris ju- di-|ca-|* re sæ- cu-|lum per|ig-|nem.|
 D4 z4 | x8 | x8 || A4 B4 | c4 d4- | d2 d2 c2 B2 | (c4 B4) | A6 A2 | G6 A2 | B6 B2 | A6 B2 | %44
w: _|||Tre- mens,|tre- mens|_ fac- tus sum|e- *|go et|ti- me-|o, et|ti- me-|
 c6 c2 | c4 f3 f | e4 d2 _d2 | c6 A2 | B6 B2 | (B2 A2) (G2 F2) | E8 | E4 (3z2!ff! [Aa]2 [Aa]2 || %52
w: o, dum|dis- cus- si-|o ve- ne-|rit at-|que ven-|tu- * ra _|i-|ra. * *|
[M:6/4] x12 | x12 | x12 | x12 | x12 | x12 | x12 | x12 | x12 | x12 | x12 | x12 | x12 | x12 | x12 | %67
w: |||||||||||||||
 x12 | z4 [Ff]2- [Ff]2 [Ff]2 [Ff]2 | [f_a]6- [fa]4 [fa]2 | [fg]6- [fg]4 [fg]2 | [gb]12 | [ga]12 | %73
w: ||Re- * qui-|em _ æ-|ter-|nam|
 [ac']6- [ac']4 [ac']2 | [a=b]6 [ab]6 | [=bd']6- [bd']4 [bd']2 | [=b^c']6 [^gc']6 | %77
w: do- * na|e- is|Dom- * mi-|ne: et|
 [^f^c']6 [fc']6 | d'6- d'4 =b2 | [^f^a]12 | [=d=a]6 [da]4 [da]2 | [^ca]12 | [=B^g]12 || %83
w: lux per-|pet- * tu-|a|lu- ce- at|e-||
[M:2/2] [^ca]8 | A4 A3 A | (A8 | =B8 | A8-) | A8- | A8 | x8 || [Dd]4- [Dd]3 [Aa] | [Aa]4 [Gg]4 | %93
w: is,|lu- ce- at|e-||is|_|||Li- * be-|ra me,|
 [Bb]3 [Bb] [Aa]4- | [Aa]4 A4 | A4 D2 E2 | (F4 E4) | D8- | D2 z2 D4 | D6 D2 | [Dd]4 [Cc]2 [B,B]2 | %101
w: Do- mi- ne,|_ de|mor- te æ-|ter- *|na.|_ In|di- e|il- la tre-|
 [Cc]4 F4- | F2 (F2 G2 A2) | A8- | (A4 G4) | A8- | A2 z2 A3 A | A4 G2 A2 | B6 [Bfb]2 | %109
w: men- da,|_ in di- e|il-||la,|_ quan- do|cœ- li mo-|ven- di|
 [Beb]4 A2 B2 | c6 [cgc']2 | [c^fc']4 B2 c2 | d6 [dad']2 | [d^gd']4 [Ee]4 | z4 A4 | d4- d3 D | %116
w: sunt, quan- do|cœ- li|mo- ven- di|sunt et|ter- ra,|dum|ve- * ne-|
 D4 D2 E2 | F8- | F2 F2 E2 D2 | [^G=B]6 d2 | E8 | D8- | D4 z4 |!8vb(! x8 | x8 | x8 | x8 | x8 | x8 | %129
w: ris ju- di-|ca-|* re sæ- cu-|lum per|ig-|nem.|_|||||||
 x8 | x8 | x8 | x8 | x8 | x8 | x8!8vb)! |] %136
w: |||||||

